X: 3250
T: PADDY Mc GUIRE
%R: jig
B: James Kerr "Merry Melodies" v.3 p.28 #250
Z: 2016 John Chambers <jc:trillian.mit.edu>
M: 6/8
L: 1/8
K: D
uA |\
dfa afa | f2d d2A | dfa afa | g2e e2A |\
dfa afa | bgb a2f | gfg eag | f2d d2 :|
|: B |\
AFD DFA | dcB A2B | AFD DFA | B2E E2B |\
AFD DFA | dcB A2f | gfg eag | f2d d2 :|

%%sep 1 1 500
%%sep 1 1 500

